X: 12590
T: Farewell To The Creeks
R: jig
M: 6/8
K: Amixolydian
|:a|"A"e2 c c>Bc|"D"d>ef "A"e2 d|c2 {d}e A>ce|"F#m"e>dc "G"B2 a|
"A"e2 c c>Bc|"D"d>ef"A" e2 d|c2{d}e "D9"e>dc|"E"B3 "A"A2:|
|:f|"A"e>ce f<ag|"D"f>df "A"e>cA|"C#m"c2c c<ec|"D" d>cd "G"B2 f|
"A"e>ce f<ag|"D" f>df "A"e>cA|"C#m"c2{d} e "D9"e>dc|"E"B3 "A"A2:|
|:a|"A"c3 "D"d2f|"A"c<ec c>BA|"D"d2 f "A"c2 e|"F#m"e>dc "G"B2 a|
"A"c3 "D"d2f|"A"c<ec c>BA|"C#m"c2{d}e "D9"e>dc|"E"B3 "A"A2:|
|:e|"A"a2 e "D"f2 a|"A"e2-e/f/ e>cA|"D"d2f "A"c2e|"F#m"e>dc "G"B2 e|
"A"a2 e "D"f2a|"A"e2-e/f/ e>cA|"C#m"c2{d}e "D9"e>dc|"E"B3 "A"A2:|

